fs/save_arrow_right_20_regular.svg

<svg viewBox="0 0 20 20" fill="none" xmlns="http://www.w3.org/2000/svg" height="1em" width="1em">
  <path d="M3 5C3 3.89543 3.89543 3 5 3H13.3787C13.9091 3 14.4178 3.21071 14.7929 3.58579L16.4142 5.20711C16.7893 5.58218 17 6.09089 17 6.62132V9.59971C16.6832 9.43777 16.3486 9.30564 16 9.20703V6.62132C16 6.3561 15.8946 6.10175 15.7071 5.91421L14.0858 4.29289C13.8983 4.10536 13.6439 4 13.3787 4L13 4V6.5C13 7.32843 12.3284 8 11.5 8L7.5 8C6.67157 8 6 7.32843 6 6.5L6 4H5C4.44772 4 4 4.44772 4 5V15C4 15.5523 4.44772 16 5 16L5 11.5C5 10.6716 5.67157 10 6.5 10H11.3369C10.9338 10.2839 10.5705 10.6206 10.2572 11H6.5C6.22386 11 6 11.2239 6 11.5V16H9.20703C9.30564 16.3486 9.43777 16.6832 9.59971 17H5C3.89543 17 3 16.1046 3 15V5ZM7 4L7 6.5C7 6.77614 7.22386 7 7.5 7L11.5 7C11.7761 7 12 6.77614 12 6.5V4L7 4ZM19 14.5C19 16.9853 16.9853 19 14.5 19C12.0147 19 10 16.9853 10 14.5C10 12.0147 12.0147 10 14.5 10C16.9853 10 19 12.0147 19 14.5ZM16.8532 14.854L16.8557 14.8514C16.9026 14.804 16.938 14.7495 16.9621 14.6914C16.9861 14.6333 16.9996 14.5697 17 14.503L17 14.5L17 14.497C16.9996 14.4303 16.9861 14.3667 16.9621 14.3086C16.9377 14.2496 16.9015 14.1944 16.8536 14.1464L14.8536 12.1464C14.6583 11.9512 14.3417 11.9512 14.1464 12.1464C13.9512 12.3417 13.9512 12.6583 14.1464 12.8536L15.2929 14H12.5C12.2239 14 12 14.2239 12 14.5C12 14.7761 12.2239 15 12.5 15H15.2929L14.1464 16.1464C13.9512 16.3417 13.9512 16.6583 14.1464 16.8536C14.3417 17.0488 14.6583 17.0488 14.8536 16.8536L16.8532 14.854Z" fill="#212121"/>
</svg>

<svg viewBox="0 0 20 20" fill="none" xmlns="http://www.w3.org/2000/svg" height="1em" width="1em">
  <path d="M3 5a2 2 0 0 1 2-2h8.379a2 2 0 0 1 1.414.586l1.621 1.621A2 2 0 0 1 17 6.621V9.6a5.465 5.465 0 0 0-1-.393V6.621a1 1 0 0 0-.293-.707l-1.621-1.621A1 1 0 0 0 13.379 4H13v2.5A1.5 1.5 0 0 1 11.5 8h-4A1.5 1.5 0 0 1 6 6.5V4H5a1 1 0 0 0-1 1v10a1 1 0 0 0 1 1v-4.5A1.5 1.5 0 0 1 6.5 10h4.837c-.403.284-.767.62-1.08 1H6.5a.5.5 0 0 0-.5.5V16h3.207c.099.349.23.683.393 1H5a2 2 0 0 1-2-2V5Zm4-1v2.5a.5.5 0 0 0 .5.5h4a.5.5 0 0 0 .5-.5V4H7Zm12 10.5a4.5 4.5 0 1 1-9 0 4.5 4.5 0 0 1 9 0Zm-2.147.354.003-.003a.499.499 0 0 0 .144-.348v-.006a.5.5 0 0 0-.146-.35l-2-2a.5.5 0 0 0-.708.707L15.293 14H12.5a.5.5 0 0 0 0 1h2.793l-1.147 1.146a.5.5 0 0 0 .708.708l2-2Z" fill="#212121"/>
</svg>
